X:1
T:Title
%%score { 1 | 2 }
L:1/8
Q:1/4=100
M:4/4
K:G
V:1 treble nm="Grand Piano"
V:2 treble 
V:1
 D2 G2 B2 G2 | E>[DF] [EG]>[Ec] [DB]4 | [Gd]2 [B,G]2 [EGc]2 [DGB]2 | [^CEB]>[CEA] [CE]>[CG] F4 | %4
w: J.~E.~Hall * * *||||
 D2 G2 B2 G2 | E>[DF] [EG]>[Ec] [DB]4 | [Gd]2 [B,G]2 [EGc]2 [DGB]2 | %7
w: |||
 [DGB]>[CDA] [B,DG]>[A,DF] [B,DG]4 | [Gd]3 [GB] [Fd][Fc] [DFA]>[CDF] | [B,DG]4 [G,B,D]2 GA | %10
w: |||
 BBBB cBAG | [FA]6 z2 | d3 B d[Fc] [DB]>[^DA] | [EG]4 E2 E>E | DEFG [CFA][CFA] [DGB]>[CDA] | %15
w: |||||
 [B,DG]6 z2 |] %16
w: |
V:2
 [G,B,]2 [G,B,D]2 [G,DG]2[K:bass] [G,B,D]2 | [C,C]>[C,G,] [C,G,]>[C,G,] [G,,G,]4 | %2
 [G,B,]2 E,2 C,2 G,,2 | A,,>A,, [A,,A,]>[A,,A,] [D,A,D]4 | %4
 [G,B,]2[K:treble] [G,B,D]2 [G,DG]2[K:bass] [G,B,D]2 | [C,C]>[C,G,] [C,G,]>[C,G,] [G,,G,]4 | %6
 [G,B,]2 E,2 C,2 G,,2 | D,>D, D,>D, G,,4 | [G,B,]3 [G,D] [D,C][D,A,] D,>D, | %9
 G,,4 G,,2[K:treble] [G,B,D][G,CD] | [G,D][G,DG][G,DG][G,DG] [G,EG][G,DG][K:bass][F,D][E,^CE] | %11
 [D,D]6 z2 | [G,B,G]3 [G,DG][K:bass] [G,,B,G][A,,A,] [B,,G,]>[B,,G,] | %13
 [C,C]4 [C,G,C]2 [C,G,C]>[C,G,C] | [D,F,C][D,G,C][D,A,C][D,B,D] D,D, D,>D, | G,,6 z2 |] %16

